X: 7961
T:Trommelvalsen
R:Waltz
O:Denmark
M:3/4
K:G
dc |\
Bd gB gB | bB gB gB | Ad fA fA | aA fA fA |\
Bd gB gB | bB gB gB | Ad fA df | g4 :|
|: d2 |\
ed Bd ge | ed Bd cd | Ad Bd cd | Ad Bd cd |\
ed Bd ge | ed Bd cd | Ad ed ef | g4 :|
